X:440
T: 93rd's Farewell To Gibralter
M: 2/4
L: 1/8
R: polka
K: A
c/d/ |\
"A"e>f ec | A>B Aa/g/ | fe/c/ "F#m"e/f/a/e/ | "Bm7"cB "E7"Bc/d/ |
"A"e>f ec | A>B "A6"Aa/g/ | "D"fe/c/ "E7"e/f/a/e/ | "A"cA A :|
a |\
"A"fe/c/ e/f/a/e/ | f/a/e/c/ "E7"Ba/g/ | "A"fe/c/ "A6"e/f/a/e/ | "Bm"fB "E7"Ba/g/ |
"A"fe/c/ e/f/a/e/ | f/a/e/c/ "E7"Ba/g/ | "A"fe/c/ "E7"e/f/a/e/ | "A"cA A :|
c/B/ |\
"A"A>B ca | "Bm7"fe/c/ "E7"Bc/B/ | "A"A/B/c/d/ "F#m"e/f/e/c/ | "Bm7"fB "E7"Bc/B/ |
"A"A>B ca | "Bm7"fe/c/ "E7"Bc/B/ | "A"A/B/c/d/ "E7"e/f/e/c/ | "A"cA A :|
c/d/ |\
"A"e>f ec | e>f "A7"ea | "D"f>e fa | "E7"fe/c/ Ba |
"A"fe/c/ "F#m"e/f/a/e/ | "Bm7"f/a/e/c/ "E7"Ba | "A"fe/c/ "E7"e/f/a/e/ | ""cA A :|
